public/assets/logos/software/arduino.svg

<svg fill="none" height="10" viewBox="0 0 10 10" width="10" xmlns="http://www.w3.org/2000/svg"><g fill="#00979d"><path d="m10 5.37682c0-1.31159-1.10687-2.37682-2.46357-2.37682-.12491 0-.25329.00694-.37821.02776-1.05482.1492-1.76266.90909-2.15822 1.49202-.39556-.58293-1.1034-1.34282-2.15822-1.49202-.12492-.01735-.2533-.02776-.37821-.02776-1.36017 0-2.46357 1.06523-2.46357 2.37682s1.10687 2.37682 2.46357 2.37682c.12491 0 .25329-.00694.38168-.02776 1.05482-.15267 1.76266-.91256 2.15822-1.49548.39556.58292 1.1034 1.34281 2.15822 1.49548.12492.01735.2533.02776.38168.02776 1.34976 0 2.45663-1.06523 2.45663-2.37682zm-7.27967 1.51631c-.08674.01388-.17349.01735-.26023.01735-.89521 0-1.620405-.69049-1.620405-1.53366 0-.84663.728665-1.53366 1.623875-1.53366.08674 0 .17349.00694.26023.01735.99584.14227 1.60306 1.12422 1.81124 1.51631-.21165.39556-.82234 1.37405-1.81471 1.51631zm2.74462-1.51631c.20472-.39209.81541-1.37404 1.81125-1.51631.08674-.01041.17349-.01735.26023-.01735.89521 0 1.6204.6905 1.6204 1.53366 0 .84664-.72866 1.53366-1.6204 1.53366-.08674 0-.17349-.00694-.26023-.01735-.99584-.14226-1.60653-1.12422-1.81125-1.51631z"/><path d="m1.78001 5.14434h1.48161v.47537h-1.48161zm5.9195.47884h.49966v-.47884h-.49966v-.49965h-.47883v.49965h-.49965v.47884h.49965v.49965h.47883zm1.83207-2.21721c0-.12145.09715-.22207.21512-.22207.12145 0 .2186.10062.2186.22207 0 .12838-.09715.22206-.2186.22206-.11797 0-.21512-.10062-.21512-.22206zm.39555 0c0-.10063-.07633-.18737-.18043-.18737-.10409 0-.17696.07633-.17696.18737 0 .1145.08328.18737.17696.18737.1041 0 .18043-.07287.18043-.18737zm-.28452-.1388h.10756c.08328 0 .11451.0347.11451.09369 0 .03817-.01735.06593-.05205.07981l.05205.10409h-.07634l-.03817-.09369h-.03816v.09369h-.0694zm.10062.13533c.03123 0 .04858-.01041.04858-.04511 0-.03123-.01041-.04164-.04858-.04164h-.03469v.09022z"/></g></svg>

<svg width="10" height="10" viewBox="0 0 10 10" fill="none" xmlns="http://www.w3.org/2000/svg">
<path d="M10 5.37682C10 4.06523 8.89313 3 7.53643 3C7.41152 3 7.28314 3.00694 7.15822 3.02776C6.1034 3.17696 5.39556 3.93685 5 4.51978C4.60444 3.93685 3.8966 3.17696 2.84178 3.02776C2.71686 3.01041 2.58848 3 2.46357 3C1.1034 3 0 4.06523 0 5.37682C0 6.68841 1.10687 7.75364 2.46357 7.75364C2.58848 7.75364 2.71686 7.7467 2.84525 7.72588C3.90007 7.57321 4.60791 6.81332 5.00347 6.2304C5.39903 6.81332 6.10687 7.57321 7.16169 7.72588C7.28661 7.74323 7.41499 7.75364 7.54337 7.75364C8.89313 7.75364 10 6.68841 10 5.37682ZM2.72033 6.89313C2.63359 6.90701 2.54684 6.91048 2.4601 6.91048C1.56489 6.91048 0.839695 6.21999 0.839695 5.37682C0.839695 4.53019 1.56836 3.84316 2.46357 3.84316C2.55031 3.84316 2.63706 3.8501 2.7238 3.86051C3.71964 4.00278 4.32686 4.98473 4.53504 5.37682C4.32339 5.77238 3.7127 6.75087 2.72033 6.89313ZM5.46495 5.37682C5.66967 4.98473 6.28036 4.00278 7.2762 3.86051C7.36294 3.8501 7.44969 3.84316 7.53643 3.84316C8.43164 3.84316 9.15683 4.53366 9.15683 5.37682C9.15683 6.22346 8.42817 6.91048 7.53643 6.91048C7.44969 6.91048 7.36294 6.90354 7.2762 6.89313C6.28036 6.75087 5.66967 5.76891 5.46495 5.37682Z" fill="#00979D"/>
<path d="M1.78001 5.14434H3.26162V5.61971H1.78001V5.14434ZM7.69951 5.62318H8.19917V5.14434H7.69951V4.64469H7.22068V5.14434H6.72103V5.62318H7.22068V6.12283H7.69951V5.62318ZM9.53158 3.40597C9.53158 3.28452 9.62873 3.1839 9.7467 3.1839C9.86815 3.1839 9.9653 3.28452 9.9653 3.40597C9.9653 3.53435 9.86815 3.62803 9.7467 3.62803C9.62873 3.62803 9.53158 3.52741 9.53158 3.40597ZM9.92713 3.40597C9.92713 3.30534 9.8508 3.2186 9.7467 3.2186C9.64261 3.2186 9.56974 3.29493 9.56974 3.40597C9.56974 3.52047 9.65302 3.59334 9.7467 3.59334C9.8508 3.59334 9.92713 3.52047 9.92713 3.40597ZM9.64261 3.26717H9.75017C9.83345 3.26717 9.86468 3.30187 9.86468 3.36086C9.86468 3.39903 9.84733 3.42679 9.81263 3.44067L9.86468 3.54476H9.78834L9.75017 3.45107H9.71201V3.54476H9.64261V3.26717ZM9.74323 3.4025C9.77446 3.4025 9.79181 3.39209 9.79181 3.35739C9.79181 3.32616 9.7814 3.31575 9.74323 3.31575H9.70854V3.40597L9.74323 3.4025Z" fill="#00979D"/>
</svg>
